X:1
T:Amante dispietoso-Passo l'ardore
T:Giovanni Stefani
T:Source : Affetti amorosi-Canzonette ad una voce sola---Venetia---A.Vincenti---1621. Editor : André Vierendeels (12/11/15).
T:Notes : Original clefs : C1, F4 Editorial accidentals above the staff Note values have been halved Alfabetto et intavolatura per chitarra Spagnola Terza impressione (first print 1618) 
T:Passo l'ardore-Amante dispietoso
C:Giovanni Stefani
%%score 1 { ( 2 3 ) | 4 }
L:1/8
Q:1/4=90
M:3/4
K:C
V:1 treble nm="Soprano" snm="S"
V:2 treble nm="BC" snm="BC"
V:3 treble 
V:4 bass 
V:1
 c2 B2 A2 | ^G3 G A2 | B2 c3 d | d6 | c4 B2 | d3 c B2 | A6 :: ^c2 c2 c2 | ^c3 c cd | B4 d2 | %10
w: Pas- so l'ar-|do- r'e vi-|v'in fe- sta'e'in|gio-|co, che|spen- t'el fo-|co.|Che spen- t'el|fo- co te- ne-|a nel|
w: Can- giai pen-|sie- ro'e l'al-|tra es- ser|vo-|glio da|to ho'il cor|mio,|da to ho'il|cor mio'a Don- na|di piu|
w: Tro- va chi|t'a- ma che|per me non|fa-|i, trop-|po t'a- ma-|i,|tropo- t'a- ma-|i con pu- ri-|ta di|
w: Piu non ti|vo- glio'e- per-|d'il- tem- po|me-|co, trop-|po fui cie-|co,-|trop- po fui|cie- co, e stol-|to nel|
 d4 ^c2 | d6 | B2 B2 c2 | d3 d B2 | c3 B A2 | ^G4 G2 | c2 B2 A2 | ^G2 G2 e2 | d2 AB cd | %19
w: pet- *|to,|ne piu so-|get- to mi|tro- vo'ad a-|mo- re,|pas- so l'ar-|do- re, pas-|so l'ar- * * *|
w: mer- *|to,|per che'ho sco-|per- to l'a-|mor tuo non|ve- ro,|can- giai pen-|sie- ro, can|giai pen- * * *|
w: co- *|re,|ne sen- t'a-|mo- re, ne|piu'il- cor ti|bra- ma,|tro- va chi|t'a- ma, tro-|va chi _ _ _|
w: pa- stat-|to,|l'ha- ver- ti'a-|ma- to'as- sai|mi pen- to|do- glio,|piu non ti|vo- glio, piu|non ti _ _ _|
 B4 !fermata!A2 :| %20
w: do- re.|
w: sie- ro.|
w: t'a- ma.|
w: vo- glio.|
V:2
 A2 ^G2 A2 | B3 B c2 | B2 c2 G2 | B6 | G4 G2 | A4 ^G2 | A6 :: A6 | ^c4 A2 | B4 A2 | A6 | A6 | %12
 d4 c2 | B4 G2- | G2 cB A2 | B6 | A2 ^G2 A2 | B4 ^G2 | A6 | ^G A2 G !fermata!A2 :| %20
V:3
 E4 F2 | E3 E E2 | G2 A2 C2 | D6 | E4 D2 | F4 E2 | ^C6 :: E6 | E4 ^F2 | D4 ^F2 | E6 | ^F6 | G4 E2 | %13
 ^F4 E2 | E4 D2 | E6 | E4 C2 | E4 E2 | F6 | E4 ^C2 :| %20
V:4
 A,,2 E,2 F,2 | E,3 E, A,2 | G,2 F,2 E,2 | G,6 | C,4 G,2 | D,4 E,2 | A,,6 :: A,,6 | A,,2 A,,3 D, | %9
 G,4 D,2 | A,,6 | D,6 | G,,2 G,,2 A,,2 | B,,3 B,, E,2 | C,4 D,2 | E,4 E,2 | A,,2 E,2 F,2 | %17
 E,4 C,2 | D,6 | E,4 !fermata!A,,2 :| %20

